uploads/music/volume-off.svg

<svg height="40" viewBox="0 0 44 40" width="44" xmlns="http://www.w3.org/2000/svg"><g fill="#6f6f6f"><path d="m34.632 5.277-2 1.971c-2.958-2.038-6.544-3.248-10.427-3.248-3.874 0-7.456 1.203-10.41 3.233l-2.302-2.268-1.434 1.414 2.771 2.732c.182.271.493.452.849.452.252 0 .479-.094.657-.244 2.736-2.073 6.15-3.319 9.869-3.319 3.739 0 7.173 1.259 9.918 3.352l.01-.013c.174.138.392.224.632.224.356 0 .667-.181.848-.452l2.454-2.419z"/><path d="m22 0c-12.15 0-22 9.85-22 22 0 4.035 1.102 7.806 3 11.055v3.945c0 .553.447 1 1 1h3.184c.413 1.162 1.512 2 2.816 2 1.657 0 3-1.343 3-3v-12c0-1.657-1.343-3-3-3-1.305 0-2.403.838-2.816 2h-3.184c-.553 0-1 .447-1 1v3.132c-.632-1.935-1-3.986-1-6.132 0-11.046 8.954-20 20-20s20 8.954 20 20c0 2.146-.368 4.197-1 6.132v-3.132c0-.553-.447-1-1-1h-3.184c-.413-1.162-1.512-2-2.816-2-1.657 0-3 1.343-3 3v12c0 1.657 1.343 3 3 3 1.305 0 2.403-.838 2.816-2h3.184c.553 0 1-.447 1-1v-3.945c1.898-3.249 3-7.019 3-11.055 0-12.15-9.85-22-22-22zm-13 25c0-.553.447-1 1-1s1 .447 1 1v12c0 .553-.447 1-1 1s-1-.447-1-1zm-4 1h2v10h-2zm30 11c0 .553-.447 1-1 1s-1-.447-1-1v-12c0-.553.447-1 1-1s1 .447 1 1zm4-1h-2v-10h2z"/></g></svg>

<?xml version="1.0" encoding="UTF-8"?>
<svg width="44px" height="40px" viewBox="0 0 44 40" version="1.1" xmlns="http://www.w3.org/2000/svg" xmlns:xlink="http://www.w3.org/1999/xlink">
    <!-- Generator: Sketch 50.2 (55047) - http://www.bohemiancoding.com/sketch -->
    <title>headphones copy</title>
    <desc>Created with Sketch.</desc>
    <defs></defs>
    <g id="Design" stroke="none" stroke-width="1" fill="none" fill-rule="evenodd">
        <g id="v.2-Post" transform="translate(-20.000000, -1015.000000)" fill="#6F6F6F" fill-rule="nonzero">
            <g id="Audio" transform="translate(20.000000, 795.000000)">
                <g id="headphones-copy" transform="translate(0.000000, 220.000000)">
                    <path d="M34.632,5.277 L32.632,7.248 C29.674,5.21 26.088,4 22.205,4 C18.331,4 14.749,5.203 11.795,7.233 L9.493,4.965 L8.059,6.379 L10.83,9.111 C11.012,9.382 11.323,9.563 11.679,9.563 C11.931,9.563 12.158,9.469 12.336,9.319 C15.072,7.246 18.486,6 22.205,6 C25.944,6 29.378,7.259 32.123,9.352 L32.133,9.339 C32.307,9.477 32.525,9.563 32.765,9.563 C33.121,9.563 33.432,9.382 33.613,9.111 L36.067,6.692 L34.632,5.277 Z" id="Shape"></path>
                    <path d="M22,0 C9.85,0 0,9.85 0,22 C0,26.035 1.102,29.806 3,33.055 L3,37 C3,37.553 3.447,38 4,38 L7.184,38 C7.597,39.162 8.696,40 10,40 C11.657,40 13,38.657 13,37 L13,25 C13,23.343 11.657,22 10,22 C8.695,22 7.597,22.838 7.184,24 L4,24 C3.447,24 3,24.447 3,25 L3,28.132 C2.368,26.197 2,24.146 2,22 C2,10.954 10.954,2 22,2 C33.046,2 42,10.954 42,22 C42,24.146 41.632,26.197 41,28.132 L41,25 C41,24.447 40.553,24 40,24 L36.816,24 C36.403,22.838 35.304,22 34,22 C32.343,22 31,23.343 31,25 L31,37 C31,38.657 32.343,40 34,40 C35.305,40 36.403,39.162 36.816,38 L40,38 C40.553,38 41,37.553 41,37 L41,33.055 C42.898,29.806 44,26.036 44,22 C44,9.85 34.15,0 22,0 Z M9,25 C9,24.447 9.447,24 10,24 C10.553,24 11,24.447 11,25 L11,37 C11,37.553 10.553,38 10,38 C9.447,38 9,37.553 9,37 L9,25 Z M5,26 L7,26 L7,36 L5,36 L5,26 Z M35,37 C35,37.553 34.553,38 34,38 C33.447,38 33,37.553 33,37 L33,25 C33,24.447 33.447,24 34,24 C34.553,24 35,24.447 35,25 L35,37 Z M39,36 L37,36 L37,26 L39,26 L39,36 Z" id="Shape"></path>
                </g>
            </g>
        </g>
    </g>
</svg>
